X:187
T: Passion
N: A0545
O: Europa, Mitteleuropa, Deutschland
N: Corner, Gsgb. 1625 No. 200.
R: Romanze, Ballade, Lied, religioeses Lied
M: 4/2
L: 1/4
K: D
D2 | A2A2A2A2 | =c3BA2
=F2 | A2=c2c2B2 | A4
D4 | A2A2A2A2 | =c3BA2
=F2 | A2=c2c2B2 | A4z2
A2 | AB=c2c2BA | G4D2
=C2 | =F2F2G2E2 | D6

@@@ Tune index: 500
